X:26
T:Rouanez Vras
T:Da Vari, Patronez eur Barroz pe eur Chapel
M:6/8
L:1/8
K:F
F|A2B c2d|(c2B) A2A|(AG)F G2A|A3- A2F|A2B c2d|(c2B) A2A|
(AG)F G2A|A3- A2A||A2A (AG)A|(B2A) G2G|(AB)c (cB)A|G3- G2F|
A2B c2 d|c3 F2B|A2A (GA)G|F3- F2z||
W:Rouanez vras an Nevou a zo hon patronez
W:En desped d'hon pec'hejou ha d'hon sempladurez
W:(Diskan)
W:C'hwi 'zo Bez gwerc'hez Vari mamm vaz hon tadou koz:
W:Warnomp ivez ni ho ped da skuilha ho pennoz.
